X: 29584
T: Nóra Críona
R: jig
M: 6/8
K: Fmajor
|:F3 AGF|G2 A BAG|cAc fcA|G2 A BAG|
ABA AGF|cBA GAc|f2 e fcA|1 G2 A BAG:|2 G2 A B2 G||
|:c=Bc fcA|cdc cAB|c=Bc fcA|G2 A BAG|
[1 c=Bc fcA|cdc cde|fgf fcA|G2 A BAG:|
[2 c=Bc d^cd|ede f2 g|a/g/fd cAF|G2 A BAG||

